Origami/16x16/apps/fontforge.svg

<svg width="16" height="16" version="1" xmlns="http://www.w3.org/2000/svg">
 <path d="m 8,1e-7 c -4.432,0 -8,3.568 -8,7.9999998 C 0,12.432 3.568,16 8,16 12.432,16 16,12.432 16,7.9999999 16,3.5680001 12.432,1e-7 8,1e-7 Z" style="fill:#cccccc"/>
 <g transform="matrix(.49999875 0 0 .49999875 -1.999975 -3.99997)">
  <path d="m21.628906 14c-2.818495 0-4.478806 3.243086-5.498047 5.955078-0.0093 0.02554-0.0065 0.01975-0.01563 0.04492l-3.115229 2e-6v1h2.771484c-0.685655 1.96669-0.791015 2.443359-0.791015 2.443359l-1.646485 5.171875c-0.862127 2.706924-1.482198 4.615235-2.371093 4.615235-1.4814793 0-0.889034-1.238281-2.0742191-1.238281-0.5925923-1e-6 -0.8886719 0.384916-0.8886719 0.769531 0 0.769231 0.5933235 1.238281 2.371094 1.238281 3.111127 0 4.887382-3.845405 6.220703-8.076172l0.746094-2.386719c0.848861-2.714824 0.732444-2.324837 0.802734-2.537109h2.859375v-1h-2.542969c-1.97e-4 9.33e-4 0.07422-0.232422 0.07422-0.232422 1.127118-3.547076 1.692051-4.998047 2.505859-4.998047 1.481479 0 0.889025 1.230469 2.074218 1.230469 0.592599 0 0.888672-0.277484 0.888672-0.662109 0-0.769231-0.593314-1.337891-2.371094-1.337891z" style="fill:#404040"/>
  <path d="m29.628906 14c-2.818495 0-4.478806 3.243086-5.498047 5.955078-0.0093 0.02554-0.0065 0.01975-0.01563 0.04492l-3.115229 2e-6v1h2.771484c-0.685655 1.96669-0.791015 2.443359-0.791015 2.443359l-1.646485 5.171875c-0.862127 2.706924-1.482198 4.615235-2.371093 4.615235-1.481479 0-0.889034-1.238281-2.074219-1.238281-0.592592-1e-6 -0.888672 0.384916-0.888672 0.769531 0 0.769231 0.593324 1.238281 2.371094 1.238281 3.111127 0 4.887382-3.845405 6.220703-8.076172l0.746094-2.386719c0.848861-2.714824 0.732444-2.324837 0.802734-2.537109h2.859375v-1h-2.542969c-1.97e-4 9.33e-4 0.07422-0.232422 0.07422-0.232422 1.127118-3.547076 1.692051-4.998047 2.505859-4.998047 1.481479 0 0.889025 1.230469 2.074218 1.230469 0.592599 0 0.888672-0.277484 0.888672-0.662109 0-0.769231-0.593314-1.337891-2.371094-1.337891z" style="fill:#404040"/>
 </g>
</svg>

<svg xmlns="http://www.w3.org/2000/svg" width="16" height="16" version="1">
 <path style="fill:#cccccc" d="m 8,1e-7 c -4.432,0 -8,3.568 -8,7.9999998 C 0,12.432 3.568,16 8,16 12.432,16 16,12.432 16,7.9999999 16,3.5680001 12.432,1e-7 8,1e-7 Z"/>
 <g transform="matrix(0.49999875,0,0,0.49999875,-1.999975,-3.99997)">
  <path style="fill:#404040" d="m 21.628906,14 c -2.818495,0 -4.478806,3.243086 -5.498047,5.955078 -0.0093,0.02554 -0.0065,0.01975 -0.01563,0.04492 L 13,20 l 0,1 2.771484,0 c -0.685655,1.96669 -0.791015,2.443359 -0.791015,2.443359 l -1.646485,5.171875 c -0.862127,2.706924 -1.482198,4.615235 -2.371093,4.615235 -1.4814793,0 -0.889034,-1.238281 -2.0742191,-1.238281 C 8.2960796,31.992187 8,32.377104 8,32.761719 8,33.53095 8.5933235,34 10.371094,34 c 3.111127,0 4.887382,-3.845405 6.220703,-8.076172 l 0.746094,-2.386719 C 18.186752,20.822285 18.070335,21.212272 18.140625,21 L 21,21 l 0,-1 -2.542969,0 c -1.97e-4,9.33e-4 0.07422,-0.232422 0.07422,-0.232422 1.127118,-3.547076 1.692051,-4.998047 2.505859,-4.998047 C 22.518589,14.769531 21.926135,16 23.111328,16 23.703927,16 24,15.722516 24,15.337891 24,14.56866 23.406686,14 21.628906,14 Z"/>
  <path style="fill:#404040" d="m 29.628906,14 c -2.818495,0 -4.478806,3.243086 -5.498047,5.955078 -0.0093,0.02554 -0.0065,0.01975 -0.01563,0.04492 L 21,20 l 0,1 2.771484,0 c -0.685655,1.96669 -0.791015,2.443359 -0.791015,2.443359 l -1.646485,5.171875 c -0.862127,2.706924 -1.482198,4.615235 -2.371093,4.615235 -1.481479,0 -0.889034,-1.238281 -2.074219,-1.238281 C 16.29608,31.992187 16,32.377104 16,32.761719 16,33.53095 16.593324,34 18.371094,34 c 3.111127,0 4.887382,-3.845405 6.220703,-8.076172 l 0.746094,-2.386719 C 26.186752,20.822285 26.070335,21.212272 26.140625,21 L 29,21 l 0,-1 -2.542969,0 c -1.97e-4,9.33e-4 0.07422,-0.232422 0.07422,-0.232422 1.127118,-3.547076 1.692051,-4.998047 2.505859,-4.998047 C 30.518589,14.769531 29.926135,16 31.111328,16 31.703927,16 32,15.722516 32,15.337891 32,14.56866 31.406686,14 29.628906,14 Z"/>
 </g>
</svg>
